**kern	**kern	**dynam
*part1	*part1	*part1
*staff2	*staff1	*
*I"Piano	*	*
*clefF4	*clefG2	*
*k[b-e-]	*k[b-e-]	*
=1	=1	=1
4F	(8aL 8ff	.
.	8ccJ) 8aa	.
4C	(8b-L 8gg	.
.	8b-J) 8een	.
=	=	=
*	*^	*
[2F	(8ffL	4a	.
.	8ccJ)	.	.
*	*v	*v	*
.	(8aL 8cc	.
.	8b-J) 8dd	.
=	=	=
4F]	(8b-L 8dd	p
.	8ccJ) 8ee-	.
4AA	8ccL 8ee-	.
.	8ee-J 8gg	.
=	=	=
*^	*	*
2BB-	4ryy	(8ee-L 8gg	sfz
.	.	8ddJ) 8ff	.
.	4ryy	(8cc#XL 8een	p
.	.	8ddJ) 8ff	.
*v	*v	*	*
=	=	=
[2E-	(8ddL 8ff	.
.	8ccJ) 8ee-X	.
.	(8bnL 8dd	.
.	8ccnJ) 8ee-	.
=	=	=
4E-]	(8ccL 8ee-	.
.	8b-XJ) 8dd	.
4En	(8aL 8cc#X	.
.	8b-J) 8dd	.
=	=	=
4F	(8b-L 8dd	.
.	8aJ) 8ccn	.
4r	8r	.
.	8f	.
=	=	=
*-	*-	*-
!!!system-decoration: {(s1,s2)}
